!!!COM: Manuel de Falla (y Matheu)
!!!OTL: [T304_Fal-w5p75m4-1h41m1-4]
**kern	**dynam	**kern	**dynam	**kern	**dynam	**kern	**dynam	**kern	**dynam	**kern	**kern	**dynam	**kern	**kern	**dynam	**kern	**dynam	**kern	**dynam
*part10	*	*part9	*part9	*part8	*part8	*part7	*part7	*part6	*part6	*part5	*part5	*part5	*part4	*part3	*part3	*part2	*	*part1	*part1
*staff11	*	*staff10	*	*staff9	*	*staff8	*	*staff7	*	*staff6	*staff5	*	*staff4	*staff3	*	*staff2	*	*staff1	*
*I"Contrabass	*	*I"Violoncello	*	*I"Viola	*	*I"Violin II	*	*I"Violin I	*	*I"Piano	*	*	*I"Horns in F 1.2.	*I"2 Clarinets in Bb	*	*I"2 Oboes	*	*I"2 Flutes	*
*I'Cb.	*	*I'Vc.	*	*I'Vla.	*	*I'Vln. II	*	*I'Vln. I	*	*I'Pno.	*	*	*I'1.2.Hn.	*I'1.2.Cl.	*	*I'1.2.Ob.	*	*I'1.2.Fl.	*
!!pagebreak:original
*clefF4	*	*clefF4	*	*clefC3	*	*clefG2	*	*clefG2	*	*clefF4	*clefG2	*	*clefG2	*clefG2	*	*clefG2	*	*clefG2	*
*ITrd7c12	*	*	*	*	*	*	*	*	*	*	*	*	*ITrd4c7	*ITrd1c2	*	*	*	*	*
*k[b-e-]	*	*k[b-e-]	*	*k[b-e-]	*	*k[b-e-]	*	*k[b-e-]	*	*k[b-e-]	*k[b-e-]	*	*k[b-]	*k[b-e-]	*	*k[b-e-]	*	*k[b-e-]	*
*B-:	*	*B-:	*	*B-:	*	*B-:	*	*B-:	*	*B-:	*B-:	*	*F:	*B-:	*	*B-:	*	*B-:	*
*M6/8	*	*M6/8	*	*M6/8	*	*M6/8	*	*M6/8	*	*M6/8	*M6/8	*	*M6/8	*M6/8	*	*M6/8	*	*M6/8	*
=1	=1	=1	=1	=1	=1	=1	=1	=1	=1	=1	=1	=1	=1	=1	=1	=1	=1	=1	=1
.	.	.	.	.	.	.	.	.	.	.	(<16qqc/LL	.	.	.	.	.	.	.	.
!	!	!	!	!	!	!	!	!LO:TX:t=[quarter]=120	!	!	!	!	!	!	!	!	!	!LO:TX:t=[[quarter]=120]	!
!LO:TX:a:t=[pizz.]	!	!	!	!	!	!	!	!LO:TX:a:B:t=Poco liberamente, con espress.	!	!	!	!	!	!	!	!	!	!LO:TX:a:B:t=Poco liberamente, con espress.	!
.	.	.	.	.	.	.	.	.	.	.	16qqf#X/JJ	.	.	.	.	.	.	.	.
*	*	*	*	*	*	*	*	*	*	*^	*	*	*	*	*	*	*	*	*
!	!LO:DY:ed=brack	!	!	!	!	!	!	!	!	!	!	!	!LO:DY:ed=brack	!	!	!	!	!	!	!
4DD	p	4%3r	.	4%3r	.	4%3r	.	4%3r	.	(<8DDL	8DD	4cc)	p	4%3r	4%3r	.	4%3r)jj	.	4%3r	.
*	*	*	*	*	*	*	*	*	*	*v	*v	*	*	*	*	*	*	*	*	*
.	.	.	.	.	.	.	.	.	.	8EE-	.	.	.	.	.	.	.	.	.
8r	.	.	.	.	.	.	.	.	.	8E-J)	8b-	.	.	.	.	.	.	.	.
4r	.	.	.	.	.	.	.	.	.	(8DL	8aL	.	.	.	.	.	.	.	.
.	.	.	.	.	.	.	.	.	.	8E-	8b-	.	.	.	.	.	.	.	.
8r	.	.	.	.	.	.	.	.	.	8e-J)	8ccJ	.	.	.	.	.	.	.	.
=2	=2	=2	=2	=2	=2	=2	=2	=2	=2	=2	=2	=2	=2	=2	=2	=2	=2	=2	=2
.	.	.	.	.	.	.	.	.	.	.	(8qf#Xm/	.	.	.	.	.	.	.	.
4%3r	.	4%3r	.	4%3r	.	4%3r	.	4%3r	.	(8e-L	4b-)	.	4%3r	4%3r	.	4%3r	.	4%3r	.
.	.	.	.	.	.	.	.	.	.	8E-	.	.	.	.	.	.	.	.	.
.	.	.	.	.	.	.	.	.	.	8DJ)	4a)j	.	.	.	.	.	.	.	.
.	.	.	.	.	.	.	.	.	.	(8E-L	.	.	.	.	.	.	.	.	.
.	.	.	.	.	.	.	.	.	.	8EE-	(4b-	.	.	.	.	.	.	.	.
.	.	.	.	.	.	.	.	.	.	8DDJ)	.	.	.	.	.	.	.	.	.
=3	=3	=3	=3	=3	=3	=3	=3	=3	=3	=3	=3	=3	=3	=3	=3	=3	=3	=3	=3
.	.	.	.	.	.	.	.	.	.	.	(16qqc/LL	.	.	.	.	.	.	.	.
.	.	.	.	.	.	.	.	.	.	.	16qqf#X/JJ	.	.	.	.	.	.	.	.
*	*	*	*	*	*	*	*	*	*	*^	*	*	*	*	*	*	*	*	*
4DD	.	4%3r	.	4%3r	.	4%3r	.	4%3r	.	(<8DDL	8DD	4cc)	.	4%3r	4%3r	.	4%3r	.	4%3r	.
*	*	*	*	*	*	*	*	*	*	*v	*v	*	*	*	*	*	*	*	*	*
.	.	.	.	.	.	.	.	.	.	8EE-	.	.	.	.	.	.	.	.	.
8r	.	.	.	.	.	.	.	.	.	8E-J)	8b-	.	.	.	.	.	.	.	.
4r	.	.	.	.	.	.	.	.	.	(8DL	8aL	.	.	.	.	.	.	.	.
.	.	.	.	.	.	.	.	.	.	8E-	8b-	.	.	.	.	.	.	.	.
8r	.	.	.	.	.	.	.	.	.	8e-J)	8ccJ	.	.	.	.	.	.	.	.
=4	=4	=4	=4	=4	=4	=4	=4	=4	=4	=4	=4	=4	=4	=4	=4	=4	=4	=4	=4
.	.	.	.	.	.	.	.	.	.	.	(8qf#Xm/	.	.	.	.	.	.	.	.
4%3r	.	4%3r	.	4%3r	.	4%3r	.	4%3r	.	(8e-L	4b-)	.	4%3r	4%3r	.	4%3r	.	4%3r	.
.	.	.	.	.	.	.	.	.	.	8E-	.	.	.	.	.	.	.	.	.
.	.	.	.	.	.	.	.	.	.	8DJ)	4a)	.	.	.	.	.	.	.	.
.	.	.	.	.	.	.	.	.	.	(8E-L	.	.	.	.	.	.	.	.	.
.	.	.	.	.	.	.	.	.	.	8EE-	(4b-	.	.	.	.	.	.	.	.
.	.	.	.	.	.	.	.	.	.	8DDJ)	.	.	.	.	.	.	.	.	.
!!LO:REH:t=41
=5	=5	=5	=5	=5	=5	=5	=5	=5	=5	=5	=5	=5	=5	=5	=5	=5	=5	=5	=5
.	.	.	.	.	.	.	.	.	.	.	(16qqc/LL	.	.	.	.	.	.	.	.
!LO:TX:a:t=sempre 1a. metá	!	!LO:TX:a:t=1a. metá	!	!LO:TX:a:t=1a. metá	!	!LO:TX:a:t=1a. metá	!	!LO:TX:a:t=1a. metá	!	!	!	!	!	!	!	!	!	!	!
.	.	.	.	.	.	.	.	.	.	.	16qqf#X/JJ	.	.	.	.	.	.	.	.
4DD	.	[2.DD	pp	[2.D	pp	[2.c	pp	(2.f#X	pp	8r	4cc)	.	4%3r	4%3r	.	4%3r	.	4%3r	.
.	.	.	.	.	.	.	.	.	.	(8DDL	.	.	.	.	.	.	.	.	.
8r	.	.	.	.	.	.	.	.	.	8DJ	8b-	.	.	.	.	.	.	.	.
4r	.	.	.	.	.	.	.	.	.	8E-L	8aL	.	.	.	.	.	.	.	.
.	.	.	.	.	.	.	.	.	.	8D	8b-	.	.	.	.	.	.	.	.
8r	.	.	.	.	.	.	.	.	.	8dJ)	8ccJ)	.	.	.	.	.	.	.	.
=6	=6	=6	=6	=6	=6	=6	=6	=6	=6	=6	=6	=6	=6	=6	=6	=6	=6	=6	=6
.	.	.	.	.	.	.	.	.	.	.	(>16qqe-/LL	.	.	.	.	.	.	.	.
!	!	!	!	!	!	!	!	!	!	!	!	!	!	!	!	!LO:TX:a:t=1o. Solo	!	!	!
!	!	!	!	!	!	!	!	!	!	!	!	!	!	!	!	!	!	!	!
.	.	.	.	.	.	.	.	.	.	.	16qqg/JJ	.	.	.	.	.	.	.	.
!	!	!	!	!	!	!	!	!	!	!	!	!	!	!	!	!	!LO:DY:t=%s espr.	!	!
4%3r	.	2.DD_	.	2.D]	.	2.c]	.	2.g)	.	8r	4ee-	.	4%3r	4%3r	.	(4ee-	mf	4%3r	.
.	.	.	.	.	.	.	.	.	.	(8DDL	.	.	.	.	.	.	.	.	.
.	.	.	.	.	.	.	.	.	.	8DJ	4dd	.	.	.	.	8dd	.	.	.
.	.	.	.	.	.	.	.	.	.	8E-L	.	.	.	.	.	8ccL	.	.	.
.	.	.	.	.	.	.	.	.	.	8G	4cc)	.	.	.	.	8dd	.	.	.
.	.	.	.	.	.	.	.	.	.	8e-J)	.	.	.	.	.	8ee-J	.	.	.
=7	=7	=7	=7	=7	=7	=7	=7	=7	=7	=7	=7	=7	=7	=7	=7	=7	=7	=7	=7
!	!	!	!	!	!	!	!	!	!	!	!	!	!	!LO:TX:a:t=1o. Solo	!	!	!	!	!
!	!	!	!	!	!	!	!	!LO:TX:a:B:t=pochiss. rit.	!	!	!	!	!	!	!LO:DY:t=%s espr.	!	!	!LO:TX:a:B:t=pochiss. rit.	!
4DD	.	(8.DDL]	.	2.G	.	2.f	.	2.bn	.	8r	2.bnt	<	4%3r	(4ggii	f	[4.bn)	.	4%3r	.
.	.	.	.	.	.	.	.	.	.	(8DDL	.	.	.	.	.	.	.	.	.
.	.	8.DJ)	.	.	.	.	.	.	.	.	.	.	.	.	.	.	.	.	.
8r	.	.	.	.	.	.	.	.	.	8DJ	.	.	.	8ff	.	.	.	.	.
4GG	.	4.GG	.	.	.	.	.	.	.	8GL	.	[ >	.	8ggL	.	8b]	.	.	.
.	.	.	.	.	.	.	.	.	.	8Bn	.	.	.	8ff	.	8r	.	.	.
8r	.	.	.	.	.	.	.	.	.	[8fJ)	.	.	.	8ee-J	.	8r	.	.	.
.	.	.	.	.	.	.	.	.	.	.	(16qqa#X/LL	.	.	.	.	.	.	.	.
.	.	.	.	.	.	.	.	.	.	.	16qqb/JJ	]	.	.	.	.	.	.	.
=8	=8	=8	=8	=8	=8	=8	=8	=8	=8	=8	=8	=8	=8	=8	=8	=8	=8	=8	=8
!	!	!	!	!	!	!	!	!	!	!	!	!	!LO:TX:a:t=1o. Solo	!	!	!	!	!	!
4CC	.	[2CC [2GG	.	2.G	.	(4d	<	(4dd	<	(8fL]	(8ddL)ii	.	4r	4dd	>	4%3r	.	4r	.
.	.	.	.	.	.	.	.	.	.	8GJ	8ccJ	.	.	.	.	.	.	.	.
4r	.	.	.	.	.	4e-	[ >	4ee-	[ >	8e-L	8a-XL	.	4r	4cc	.	.	.	4r	.
.	.	.	.	.	.	.	.	.	.	8cJ	8gJ	.	.	.	.	.	.	.	.
!	!	!	!	!	!	!	!	!LO:TX:a:B:t=tempo	!	!	!	!	!LO:TX:b:i:t=dolciss.	!	!	!	!	!LO:TX:a:B:t=tempo	!
4r	.	8CC] 8GG]	.	.	.	4g)	]	4gg)	]	4G)	8fL	.	(4bXii	4g	]	.	.	4bn (4bbnii	p
.	.	8r	.	.	.	.	.	.	.	.	8e-J	.	.	.	.	.	.	.	.
=	=	=	=	=	=	=	=	=	=	=	=	=	=	=	=	=	=	=	=
*-	*-	*-	*-	*-	*-	*-	*-	*-	*-	*-	*-	*-	*-	*-	*-	*-	*-	*-	*-
!!!system-decoration: [(s1,s2,s3,s4[({(s5,s6)})][(s7,s8)]s9[(s10,s11)])]
!!!Xfilter: slurcheck
!!!RDF**kern: > = above
!!!RDF**kern: < = below
!!!Xfilter: colorgroups
!!!RDF**kern: i = marked note, color="hotpink", text="extra("
!!!RDF**kern: j = marked note, color="magenta", text="extra)"
!!!RDF**kern: i = marked note, color="hotpink", text="extra("
!!!RDF**kern: j = marked note, color="magenta", text="extra)"
